packages/foundations/assets/icons/functional/images/navigation/log_out_32.svg

<svg width="32" height="32" viewBox="0 0 32 32" fill="none" xmlns="http://www.w3.org/2000/svg">
<g clip-path="url(#clip0_187_55)">
<path fill-rule="evenodd" clip-rule="evenodd" d="M3.75 25C3.75 26.6562 5.0938 28 6.75 28H12.75C13.3125 28 13.75 27.5625 13.75 27C13.75 26.4375 13.3125 26 12.75 26H6.75C6.1875 26 5.75 25.5625 5.75 25V7C5.75 6.4375 6.1875 6 6.75 6H12.75C13.3125 6 13.75 5.5625 13.75 5C13.75 4.4375 13.3125 4 12.75 4H6.75C5.0938 4 3.75 5.3438 3.75 7V25ZM10.75 16C10.75 16.5625 11.1875 17 11.75 17H24.8438L20.5312 21.3125C20.3438 21.5 20.25 21.75 20.25 22C20.25 22.5625 20.6562 23 21.25 23C21.5 23 21.7812 22.9062 21.9688 22.7188L27.9688 16.7188C28.1562 16.5312 28.25 16.25 28.25 16C28.25 15.75 28.1562 15.5 27.9688 15.3125L21.9375 9.2812C21.75 9.0938 21.5 9 21.25 9C20.6562 9 20.25 9.4375 20.25 10C20.25 10.25 20.3125 10.5312 20.5312 10.7188L24.8438 15H11.75C11.1875 15 10.75 15.4688 10.75 16Z" fill="#1A1C1F"/>
</g>
<defs>
<clipPath id="clip0_187_55">
<rect width="32" height="32" fill="white"/>
</clipPath>
</defs>
</svg>

<svg xmlns="http://www.w3.org/2000/svg" width="32" height="32" fill="none"><g clip-path="url(#a)"><path fill="#1A1C1F" fill-rule="evenodd" d="M3.75 25a3 3 0 0 0 3 3h6c.563 0 1-.437 1-1s-.437-1-1-1h-6c-.562 0-1-.437-1-1V7c0-.562.438-1 1-1h6c.563 0 1-.437 1-1s-.437-1-1-1h-6a3 3 0 0 0-3 3zm7-9c0 .563.438 1 1 1h13.094l-4.313 4.313a.97.97 0 0 0-.281.687c0 .563.406 1 1 1 .25 0 .531-.094.719-.281l6-6c.187-.188.281-.469.281-.719a.97.97 0 0 0-.281-.687L21.937 9.28A.97.97 0 0 0 21.25 9c-.594 0-1 .438-1 1 0 .25.063.531.281.719L24.844 15H11.75c-.562 0-1 .469-1 1" clip-rule="evenodd"/></g><defs><clipPath id="a"><path fill="#fff" d="M0 0h32v32H0z"/></clipPath></defs></svg>
